flaticon/delivery/package-3.svg

<svg xmlns="http://www.w3.org/2000/svg" width="32" height="32" viewBox="0 0 24 24">
    <path d="M 24 5.199219 C 24 2.320312 21.679688 0 18.800781 0 C 16.054688 0 13.816406 2.109375 13.613281 4.800781 L 12 4.800781 L 12 4.398438 C 12 4.160156 11.839844 4 11.601562 4 L 7.601562 4 C 7.359375 4 7.199219 4.160156 7.199219 4.398438 L 7.199219 4.800781 L 2 4.800781 C 0.878906 4.800781 0 5.679688 0 6.800781 L 0 22 C 0 23.121094 0.921875 24 2 24 L 17.199219 24 C 18.320312 24 19.199219 23.121094 19.199219 22 L 19.199219 10.386719 C 21.890625 10.183594 24 7.945312 24 5.199219 Z M 8 4.800781 L 11.199219 4.800781 L 11.199219 9.160156 L 9.839844 8.078125 C 9.71875 7.960938 9.519531 7.960938 9.359375 8.078125 L 8 9.160156 Z M 18.398438 22 C 18.398438 22.679688 17.878906 23.199219 17.199219 23.199219 L 2 23.199219 C 1.320312 23.199219 0.800781 22.679688 0.800781 22 L 0.800781 6.800781 C 0.800781 6.121094 1.320312 5.601562 2 5.601562 L 7.199219 5.601562 L 7.199219 9.238281 C 7.199219 9.519531 7.359375 9.800781 7.640625 9.921875 C 7.878906 10.039062 8.199219 10.039062 8.441406 9.839844 L 9.601562 8.921875 L 10.761719 9.839844 C 10.921875 9.960938 11.078125 10 11.238281 10 C 11.359375 10 11.480469 10 11.558594 9.921875 C 11.839844 9.800781 12 9.519531 12 9.238281 L 12 5.601562 L 13.601562 5.601562 C 13.800781 8.160156 15.839844 10.199219 18.398438 10.398438 Z M 18.800781 9.601562 C 16.359375 9.601562 14.398438 7.640625 14.398438 5.199219 C 14.398438 2.761719 16.359375 0.800781 18.800781 0.800781 C 21.238281 0.800781 23.199219 2.761719 23.199219 5.199219 C 23.199219 7.640625 21.238281 9.601562 18.800781 9.601562 Z M 18.800781 9.601562"/>
    <path d="M 8.398438 16.800781 L 2.800781 16.800781 C 2.558594 16.800781 2.398438 16.960938 2.398438 17.199219 L 2.398438 22 C 2.398438 22.238281 2.558594 22.398438 2.800781 22.398438 L 8.398438 22.398438 C 8.640625 22.398438 8.800781 22.238281 8.800781 22 L 8.800781 17.199219 C 8.800781 16.960938 8.640625 16.800781 8.398438 16.800781 Z M 8 21.601562 L 3.199219 21.601562 L 3.199219 17.601562 L 8 17.601562 Z M 8 21.601562"/>
    <path d="M4.398438 19.199219L6.800781 19.199219C7.039062 19.199219 7.199219 19.039062 7.199219 18.800781 7.199219 18.558594 7.039062 18.398438 6.800781 18.398438L4.398438 18.398438C4.160156 18.398438 4 18.558594 4 18.800781 4 19.039062 4.160156 19.199219 4.398438 19.199219zM4.398438 20.800781L6 20.800781C6.238281 20.800781 6.398438 20.640625 6.398438 20.398438 6.398438 20.160156 6.238281 20 6 20L4.398438 20C4.160156 20 4 20.160156 4 20.398438 4 20.640625 4.160156 20.800781 4.398438 20.800781zM21.078125 2.921875C20.921875 2.761719 20.679688 2.761719 20.519531 2.921875L18.800781 4.640625 17.078125 2.921875C16.921875 2.761719 16.679688 2.761719 16.519531 2.921875 16.359375 3.078125 16.359375 3.320312 16.519531 3.480469L18.238281 5.199219 16.519531 6.921875C16.359375 7.078125 16.359375 7.320312 16.519531 7.480469 16.601562 7.558594 16.679688 7.601562 16.800781 7.601562 16.921875 7.601562 17 7.558594 17.078125 7.480469L18.800781 5.761719 20.519531 7.480469C20.601562 7.558594 20.679688 7.601562 20.800781 7.601562 20.921875 7.601562 21 7.558594 21.078125 7.480469 21.238281 7.320312 21.238281 7.078125 21.078125 6.921875L19.359375 5.199219 21.078125 3.480469C21.238281 3.320312 21.238281 3.078125 21.078125 2.921875zM21.078125 2.921875"/>
</svg>

<svg xmlns="http://www.w3.org/2000/svg" width="32" height="32" viewBox="0 0 24 24">
    <path d="M24 5.2A5.19 5.19 0 0 0 18.8 0a5.192 5.192 0 0 0-5.187 4.8H12v-.402C12 4.16 11.84 4 11.602 4h-4c-.243 0-.403.16-.403.398v.403H2c-1.121 0-2 .879-2 2V22c0 1.121.922 2 2 2h15.2c1.12 0 2-.879 2-2V10.387A5.192 5.192 0 0 0 24 5.199zM8 4.8h3.2v4.36L9.84 8.078c-.121-.117-.32-.117-.48 0L8 9.16zM18.398 22c0 .68-.52 1.2-1.199 1.2H2c-.68 0-1.2-.52-1.2-1.2V6.8c0-.679.52-1.198 1.2-1.198h5.2v3.636c0 .282.16.563.44.684a.745.745 0 0 0 .801-.082l1.16-.918 1.16.918c.16.12.317.16.477.16.121 0 .242 0 .32-.078A.743.743 0 0 0 12 9.238V5.602h1.602a5.223 5.223 0 0 0 4.796 4.796zm.403-12.398a4.39 4.39 0 0 1-4.403-4.403A4.389 4.389 0 0 1 18.801.801a4.388 4.388 0 0 1 4.398 4.398 4.389 4.389 0 0 1-4.398 4.403zm0 0"/>
    <path d="M8.398 16.8H2.801c-.242 0-.403.16-.403.4V22c0 .238.16.398.403.398h5.597c.243 0 .403-.16.403-.398v-4.8c0-.24-.16-.4-.403-.4zM8 21.603H3.2v-4H8zm0 0"/>
    <path d="M4.398 19.2h2.403c.238 0 .398-.16.398-.4 0-.241-.16-.402-.398-.402H4.398c-.238 0-.398.16-.398.403 0 .238.16.398.398.398zm0 0M4.398 20.8H6c.238 0 .398-.16.398-.402 0-.238-.16-.398-.398-.398H4.398c-.238 0-.398.16-.398.398 0 .243.16.403.398.403zm0 0M21.078 2.922a.385.385 0 0 0-.558 0L18.8 4.64l-1.722-1.72a.385.385 0 0 0-.558 0 .385.385 0 0 0 0 .56l1.718 1.718-1.718 1.723a.385.385 0 0 0 0 .558c.082.079.16.122.28.122a.36.36 0 0 0 .278-.122l1.723-1.718L20.52 7.48c.082.079.16.122.28.122a.36.36 0 0 0 .278-.122.385.385 0 0 0 0-.558L19.36 5.199l1.72-1.719a.385.385 0 0 0 0-.558zm0 0"/>
</svg>
